polaris-icons/icons/new-icons/EnvelopeMajor.svg

<svg width="20" height="20" viewBox="0 0 20 20" fill="none" xmlns="http://www.w3.org/2000/svg">
<path d="M6 9.5C5.58579 9.5 5.25 9.83579 5.25 10.25C5.25 10.6642 5.58579 11 6 11H7C7.41421 11 7.75 10.6642 7.75 10.25C7.75 9.83579 7.41421 9.5 7 9.5H6Z" fill="#4A4A4A"/>
<path d="M5.25 12.5C5.25 12.0858 5.58579 11.75 6 11.75H9C9.41421 11.75 9.75 12.0858 9.75 12.5C9.75 12.9142 9.41421 13.25 9 13.25H6C5.58579 13.25 5.25 12.9142 5.25 12.5Z" fill="#4A4A4A"/>
<path fill-rule="evenodd" clip-rule="evenodd" d="M5.25 4C3.73122 4 2.5 5.23122 2.5 6.75V13.25C2.5 14.7688 3.73122 16 5.25 16H14.75C16.2688 16 17.5 14.7688 17.5 13.25V6.75C17.5 5.23122 16.2688 4 14.75 4H5.25ZM12.4336 5.5H5.25C4.55964 5.5 4 6.05964 4 6.75V13.25C4 13.9404 4.55964 14.5 5.25 14.5H12.4339L11.9332 14.2269C11.0497 13.745 10.5 12.819 10.5 11.8127V8.18719C10.5 7.18084 11.0497 6.25486 11.9332 5.77297L12.4336 5.5ZM16 13.052V6.94787C16 6.18881 15.1875 5.7065 14.5211 6.06997L12.6514 7.08982C12.2499 7.30886 12 7.72976 12 8.18719V11.8127C12 12.2701 12.2499 12.691 12.6514 12.91L14.5211 13.9299C15.1875 14.2933 16 13.811 16 13.052Z" fill="#4A4A4A"/>
</svg>

<svg viewBox="0 0 20 20" xmlns="http://www.w3.org/2000/svg"><path d="M6 9.5a.75.75 0 0 0 0 1.5h1a.75.75 0 0 0 0-1.5h-1Z" fill="#5C5F62"/><path d="M5.25 12.5a.75.75 0 0 1 .75-.75h3a.75.75 0 0 1 0 1.5h-3a.75.75 0 0 1-.75-.75Z" fill="#5C5F62"/><path fill-rule="evenodd" d="M5.25 4a2.75 2.75 0 0 0-2.75 2.75v6.5a2.75 2.75 0 0 0 2.75 2.75h9.5a2.75 2.75 0 0 0 2.75-2.75v-6.5a2.75 2.75 0 0 0-2.75-2.75h-9.5Zm7.184 1.5h-7.184c-.69 0-1.25.56-1.25 1.25v6.5c0 .69.56 1.25 1.25 1.25h7.184l-.5-.273a2.75 2.75 0 0 1-1.434-2.414v-3.626a2.75 2.75 0 0 1 1.433-2.414l.5-.273Zm3.566 7.552v-6.104a1 1 0 0 0-1.479-.878l-1.87 1.02a1.25 1.25 0 0 0-.651 1.097v3.626c0 .457.25.878.651 1.097l1.87 1.02a1 1 0 0 0 1.479-.878Z" fill="#5C5F62"/></svg>
